public/assets/icons/Edit.svg

<svg width="24" height="24" viewBox="0 0 24 24" fill="none" xmlns="http://www.w3.org/2000/svg">
<path d="M5 19H6.2615L16.498 8.7635L15.2365 7.502L5 17.7385V19ZM3.5 20.5V17.1155L16.6905 3.93075C16.8417 3.79342 17.0086 3.68733 17.1913 3.6125C17.3741 3.5375 17.5658 3.5 17.7663 3.5C17.9668 3.5 18.1609 3.53558 18.3488 3.60675C18.5368 3.67792 18.7032 3.79108 18.848 3.94625L20.0693 5.18275C20.2244 5.32758 20.335 5.49425 20.401 5.68275C20.467 5.87125 20.5 6.05975 20.5 6.24825C20.5 6.44942 20.4657 6.64133 20.397 6.824C20.3283 7.00683 20.2191 7.17383 20.0693 7.325L6.8845 20.5H3.5ZM15.8562 8.14375L15.2365 7.502L16.498 8.7635L15.8562 8.14375Z" fill="#FF8D00"/>
</svg>

<svg xmlns="http://www.w3.org/2000/svg" width="24" height="24" fill="none"><path fill="#FF8D00" d="M5 19h1.261L16.498 8.764l-1.262-1.262L5 17.738V19Zm-1.5 1.5v-3.384L16.69 3.93c.152-.138.319-.244.501-.319a1.5 1.5 0 0 1 .575-.112c.2 0 .395.036.583.107.188.07.354.184.499.34l1.221 1.236c.155.145.266.311.332.5.066.188.099.377.099.565 0 .201-.034.393-.103.576-.069.183-.178.35-.328.501L6.885 20.5H3.5ZM15.856 8.144l-.62-.642 1.262 1.262-.642-.62Z"/></svg>
